svg/fluentui-system-icons/ic_fluent_text_strikethrough_20_regular.svg

<svg width="20" height="20" viewBox="0 0 20 20" fill="none" xmlns="http://www.w3.org/2000/svg">
<path d="M6.52795 4.0264C7.42823 3.40313 8.65353 3 10.0001 3C12.6884 3 14.3259 4.43446 14.9001 5.2C15.0657 5.42091 15.021 5.73431 14.8001 5.9C14.5791 6.06569 14.2657 6.02091 14.1001 5.8C13.6742 5.23221 12.3117 4 10.0001 4C8.84657 4 7.82188 4.34687 7.09716 4.8486C6.35928 5.35944 6.00005 5.9758 6.00005 6.5C6.00005 7.40887 6.43221 7.98368 7.16703 8.43273C7.5285 8.65363 7.95091 8.83593 8.4155 9H6.23017C5.49804 8.43014 5.00005 7.63702 5.00005 6.5C5.00005 5.5242 5.64083 4.64056 6.52795 4.0264ZM16.5 10C16.7761 10 17 10.2239 17 10.5C17 10.7761 16.7761 11 16.5 11H13.7699C14.5021 11.5699 15.0001 12.363 15.0001 13.5C15.0001 14.7277 14.2789 15.6202 13.3235 16.1812C12.3776 16.7366 11.1598 17 10.0001 17C8.87386 17 7.92209 16.8723 7.10718 16.5218C6.27999 16.166 5.63015 15.5965 5.08403 14.7774C4.93085 14.5476 4.99294 14.2372 5.2227 14.084C5.45247 13.9308 5.7629 13.9929 5.91608 14.2226C6.36995 14.9035 6.87636 15.334 7.5023 15.6032C8.14051 15.8777 8.93875 16 10.0001 16C11.0278 16 12.0601 15.7634 12.8172 15.3188C13.5649 14.8798 14.0001 14.2723 14.0001 13.5C14.0001 12.5911 13.5679 12.0163 12.8331 11.5673C12.4716 11.3464 12.0492 11.1641 11.5846 11H3.5C3.22386 11 3 10.7761 3 10.5C3 10.2239 3.22386 10 3.5 10H16.5Z" fill="#212121"/>
</svg>

<svg xmlns="http://www.w3.org/2000/svg" width="20" height="20"><path d="M6.528 4.026C7.428 3.403 8.654 3 10 3c2.688 0 4.326 1.434 4.9 2.2a.5.5 0 0 1-.8.6C13.674 5.232 12.312 4 10 4c-1.153 0-2.178.347-2.903.849C6.36 5.359 6 5.976 6 6.5c0 .909.432 1.484 1.167 1.933.362.22.784.403 1.248.567H6.23C5.498 8.43 5 7.637 5 6.5c0-.976.64-1.86 1.528-2.474ZM16.5 10a.5.5 0 0 1 0 1h-2.73c.732.57 1.23 1.363 1.23 2.5 0 1.228-.721 2.12-1.677 2.681-.945.556-2.163.819-3.323.819-1.126 0-2.078-.128-2.893-.478-.827-.356-1.477-.925-2.023-1.745a.5.5 0 0 1 .832-.554c.454.68.96 1.111 1.586 1.38C8.141 15.878 8.94 16 10 16c1.028 0 2.06-.237 2.817-.681.748-.44 1.183-1.047 1.183-1.819 0-.909-.432-1.484-1.167-1.933A6.651 6.651 0 0 0 11.585 11H3.5a.5.5 0 0 1 0-1h13Z"/></svg>
